contributed-vectors/airly.svg

<svg xmlns="http://www.w3.org/2000/svg" xml:space="preserve" style="fill-rule:evenodd;clip-rule:evenodd;stroke-linejoin:round;stroke-miterlimit:2" viewBox="0 0 192 192"><path d="M164.5 21.5c0-5.519-4.481-10-10-10h-133c-5.519 0-10 4.481-10 10v133c0 5.519 4.481 10 10 10h133c5.519 0 10-4.481 10-10v-133Z" style="fill:#9abeff" transform="translate(8 8)"/><path d="M136.273 94.68c-1.414 2.106-2.124 7.693-2.011 9.837.277 5.261 2.879 8.21 6.638 11.63 1.166 1.062 6.578 4.139 6.782 3.526.34-1.019 2.845-7.096 2.762-7.273-.221-.473-3.379-1.62-5.696-3.167-2.454-1.639-4.526-3.858-5.425-5.025-.586-.761-2.03-2.937-2.352-3.978-.761-2.463-.596-3.815-.698-5.55Z" style="fill:#fff" transform="translate(11.586 10.756) scale(.88854)"/><path d="M136.273 94.68c-1.414 2.106-2.124 7.693-2.011 9.837.277 5.261 2.879 8.21 6.638 11.63 1.166 1.062 6.578 4.139 6.782 3.526.34-1.019 2.845-7.096 2.762-7.273-.221-.473-3.379-1.62-5.696-3.167-2.454-1.639-4.526-3.858-5.425-5.025-.586-.761-2.03-2.937-2.352-3.978-.761-2.463-.596-3.815-.698-5.55Z" style="fill:#fff" transform="rotate(-40 105.869 74.761) scale(.88854)"/><path d="M136.273 94.68c-1.414 2.106-2.124 7.693-2.011 9.837.277 5.261 2.879 8.21 6.638 11.63 1.166 1.062 6.578 4.139 6.782 3.526.34-1.019 2.845-7.096 2.762-7.273-.221-.473-3.379-1.62-5.696-3.167-2.454-1.639-4.526-3.858-5.425-5.025-.586-.761-2.03-2.937-2.352-3.978-.761-2.463-.596-3.815-.698-5.55Z" style="fill:#fff" transform="rotate(-80 97.502 83.774) scale(.88854)"/><path d="M136.273 94.68c-1.414 2.106-2.124 7.693-2.011 9.837.277 5.261 2.879 8.21 6.638 11.63 1.166 1.062 6.578 4.139 6.782 3.526.34-1.019 2.845-7.096 2.762-7.273-.221-.473-3.379-1.62-5.696-3.167-2.454-1.639-4.526-3.858-5.425-5.025-.586-.761-2.03-2.937-2.352-3.978-.761-2.463-.596-3.815-.698-5.55Z" style="fill:#fff" transform="rotate(-120 94.198 87.333) scale(.88854)"/><path d="M136.273 94.68c-1.414 2.106-2.124 7.693-2.011 9.837.277 5.261 2.879 8.21 6.638 11.63 1.166 1.062 6.578 4.139 6.782 3.526.34-1.019 2.845-7.096 2.762-7.273-.221-.473-3.379-1.62-5.696-3.167-2.454-1.639-4.526-3.858-5.425-5.025-.586-.761-2.03-2.937-2.352-3.978-.761-2.463-.596-3.815-.698-5.55Z" style="fill:#fff" transform="rotate(-160 92.041 89.656) scale(.88854)"/><path d="M136.273 94.68c-1.414 2.106-2.124 7.693-2.011 9.837.277 5.261 2.879 8.21 6.638 11.63 1.166 1.062 6.578 4.139 6.782 3.526.34-1.019 2.845-7.096 2.762-7.273-.221-.473-3.379-1.62-5.696-3.167-2.454-1.639-4.526-3.858-5.425-5.025-.586-.761-2.03-2.937-2.352-3.978-.761-2.463-.596-3.815-.698-5.55Z" style="fill:#fff" transform="rotate(160 90.144 91.7) scale(.88854)"/><path d="M136.273 94.68c-1.414 2.106-2.124 7.693-2.011 9.837.277 5.261 2.879 8.21 6.638 11.63 1.166 1.062 6.578 4.139 6.782 3.526.34-1.019 2.845-7.096 2.762-7.273-.221-.473-3.379-1.62-5.696-3.167-2.454-1.639-4.526-3.858-5.425-5.025-.586-.761-2.03-2.937-2.352-3.978-.761-2.463-.596-3.815-.698-5.55Z" style="fill:#fff" transform="rotate(120 87.988 94.022) scale(.88854)"/><path d="M136.273 94.68c-1.414 2.106-2.124 7.693-2.011 9.837.277 5.261 2.879 8.21 6.638 11.63 1.166 1.062 6.578 4.139 6.782 3.526.34-1.019 2.845-7.096 2.762-7.273-.221-.473-3.379-1.62-5.696-3.167-2.454-1.639-4.526-3.858-5.425-5.025-.586-.761-2.03-2.937-2.352-3.978-.761-2.463-.596-3.815-.698-5.55Z" style="fill:#fff" transform="rotate(80 84.684 97.582) scale(.88854)"/><path d="M136.273 94.68c-1.414 2.106-2.124 7.693-2.011 9.837.277 5.261 2.879 8.21 6.638 11.63 1.166 1.062 6.578 4.139 6.782 3.526.34-1.019 2.845-7.096 2.762-7.273-.221-.473-3.379-1.62-5.696-3.167-2.454-1.639-4.526-3.858-5.425-5.025-.586-.761-2.03-2.937-2.352-3.978-.761-2.463-.596-3.815-.698-5.55Z" style="fill:#fff" transform="rotate(40 76.317 106.594) scale(.88854)"/></svg>

<?xml version="1.0" encoding="UTF-8" standalone="no"?>
<!DOCTYPE svg PUBLIC "-//W3C//DTD SVG 1.1//EN" "http://www.w3.org/Graphics/SVG/1.1/DTD/svg11.dtd">
<svg width="100%" height="100%" viewBox="0 0 192 192" version="1.1" xmlns="http://www.w3.org/2000/svg" xmlns:xlink="http://www.w3.org/1999/xlink" xml:space="preserve" xmlns:serif="http://www.serif.com/" style="fill-rule:evenodd;clip-rule:evenodd;stroke-linejoin:round;stroke-miterlimit:2;">
    <g id="Layer1">
        <g transform="matrix(1,0,0,1,8,8)">
            <path d="M164.5,21.5C164.5,15.981 160.019,11.5 154.5,11.5L21.5,11.5C15.981,11.5 11.5,15.981 11.5,21.5L11.5,154.5C11.5,160.019 15.981,164.5 21.5,164.5L154.5,164.5C160.019,164.5 164.5,160.019 164.5,154.5L164.5,21.5Z" style="fill:rgb(154,190,255);"/>
        </g>
        <g transform="matrix(0.888542,0,0,0.888542,11.5861,10.7557)">
            <path d="M136.273,94.68C134.859,96.786 134.149,102.373 134.262,104.517C134.539,109.778 137.141,112.727 140.9,116.147C142.066,117.209 147.478,120.286 147.682,119.673C148.022,118.654 150.527,112.577 150.444,112.4C150.223,111.927 147.065,110.78 144.748,109.233C142.294,107.594 140.222,105.375 139.323,104.208C138.737,103.447 137.293,101.271 136.971,100.23C136.21,97.767 136.375,96.415 136.273,94.68Z" style="fill:white;"/>
            <g transform="matrix(0.766044,-0.642788,0.642788,0.766044,-39.2479,84.1673)">
                <path d="M136.273,94.68C134.859,96.786 134.149,102.373 134.262,104.517C134.539,109.778 137.141,112.727 140.9,116.147C142.066,117.209 147.478,120.286 147.682,119.673C148.022,118.654 150.527,112.577 150.444,112.4C150.223,111.927 147.065,110.78 144.748,109.233C142.294,107.594 140.222,105.375 139.323,104.208C138.737,103.447 137.293,101.271 136.971,100.23C136.21,97.767 136.375,96.415 136.273,94.68Z" style="fill:white;"/>
            </g>
            <g transform="matrix(0.173648,-0.984808,0.984808,0.173648,-15.2118,173.871)">
                <path d="M136.273,94.68C134.859,96.786 134.149,102.373 134.262,104.517C134.539,109.778 137.141,112.727 140.9,116.147C142.066,117.209 147.478,120.286 147.682,119.673C148.022,118.654 150.527,112.577 150.444,112.4C150.223,111.927 147.065,110.78 144.748,109.233C142.294,107.594 140.222,105.375 139.323,104.208C138.737,103.447 137.293,101.271 136.971,100.23C136.21,97.767 136.375,96.415 136.273,94.68Z" style="fill:white;"/>
            </g>
            <g transform="matrix(-0.5,-0.866025,0.866025,-0.5,60.8616,227.138)">
                <path d="M136.273,94.68C134.859,96.786 134.149,102.373 134.262,104.517C134.539,109.778 137.141,112.727 140.9,116.147C142.066,117.209 147.478,120.286 147.682,119.673C148.022,118.654 150.527,112.577 150.444,112.4C150.223,111.927 147.065,110.78 144.748,109.233C142.294,107.594 140.222,105.375 139.323,104.208C138.737,103.447 137.293,101.271 136.971,100.23C136.21,97.767 136.375,96.415 136.273,94.68Z" style="fill:white;"/>
            </g>
            <g transform="matrix(-0.939693,-0.34202,0.34202,-0.939693,153.377,219.044)">
                <path d="M136.273,94.68C134.859,96.786 134.149,102.373 134.262,104.517C134.539,109.778 137.141,112.727 140.9,116.147C142.066,117.209 147.478,120.286 147.682,119.673C148.022,118.654 150.527,112.577 150.444,112.4C150.223,111.927 147.065,110.78 144.748,109.233C142.294,107.594 140.222,105.375 139.323,104.208C138.737,103.447 137.293,101.271 136.971,100.23C136.21,97.767 136.375,96.415 136.273,94.68Z" style="fill:white;"/>
            </g>
            <g transform="matrix(-0.939693,0.34202,-0.34202,-0.939693,219.044,153.377)">
                <path d="M136.273,94.68C134.859,96.786 134.149,102.373 134.262,104.517C134.539,109.778 137.141,112.727 140.9,116.147C142.066,117.209 147.478,120.286 147.682,119.673C148.022,118.654 150.527,112.577 150.444,112.4C150.223,111.927 147.065,110.78 144.748,109.233C142.294,107.594 140.222,105.375 139.323,104.208C138.737,103.447 137.293,101.271 136.971,100.23C136.21,97.767 136.375,96.415 136.273,94.68Z" style="fill:white;"/>
            </g>
            <g transform="matrix(-0.5,0.866025,-0.866025,-0.5,227.138,60.8616)">
                <path d="M136.273,94.68C134.859,96.786 134.149,102.373 134.262,104.517C134.539,109.778 137.141,112.727 140.9,116.147C142.066,117.209 147.478,120.286 147.682,119.673C148.022,118.654 150.527,112.577 150.444,112.4C150.223,111.927 147.065,110.78 144.748,109.233C142.294,107.594 140.222,105.375 139.323,104.208C138.737,103.447 137.293,101.271 136.971,100.23C136.21,97.767 136.375,96.415 136.273,94.68Z" style="fill:white;"/>
            </g>
            <g transform="matrix(0.173648,0.984808,-0.984808,0.173648,173.871,-15.2118)">
                <path d="M136.273,94.68C134.859,96.786 134.149,102.373 134.262,104.517C134.539,109.778 137.141,112.727 140.9,116.147C142.066,117.209 147.478,120.286 147.682,119.673C148.022,118.654 150.527,112.577 150.444,112.4C150.223,111.927 147.065,110.78 144.748,109.233C142.294,107.594 140.222,105.375 139.323,104.208C138.737,103.447 137.293,101.271 136.971,100.23C136.21,97.767 136.375,96.415 136.273,94.68Z" style="fill:white;"/>
            </g>
            <g transform="matrix(0.766044,0.642788,-0.642788,0.766044,84.1673,-39.2479)">
                <path d="M136.273,94.68C134.859,96.786 134.149,102.373 134.262,104.517C134.539,109.778 137.141,112.727 140.9,116.147C142.066,117.209 147.478,120.286 147.682,119.673C148.022,118.654 150.527,112.577 150.444,112.4C150.223,111.927 147.065,110.78 144.748,109.233C142.294,107.594 140.222,105.375 139.323,104.208C138.737,103.447 137.293,101.271 136.971,100.23C136.21,97.767 136.375,96.415 136.273,94.68Z" style="fill:white;"/>
            </g>
        </g>
    </g>
</svg>
